X: 15
T: the Chicago Reel
R: reel
Z: 2012 John Chambers <jc@trillian.mit.edu>
B: "100 Essential Irish Session Tunes" 1995 Dave Mallinson, ed.
M: 4/4
L: 1/8
K: Ador
B |\
"C"cded cAGE | "G"GAGE GAcd | "C"ecgc acgc | "F"eaag "G7"e=fed |
"C"cded cAGE | "G"GAGE GAcd | "F"eaag "Em"e=fed | "F"((3cBA) "G"BG "Am"A3 :|
|: B |\
"Am"cdef g2ef | "G"gfgd "Em"BG~G2 | "Am"Bdef gedg | "Em"eaag "Am"aged |
"Am"cdef "G"g2fg | "Am"abaf "G"g3e | "F"=f3d "Em"e=fed | "F"((3cBA) "G"BG "Am"A3 :|

%%sep 2 1 500
%%sep 1 1 500

